assets/02_eyes/Eye 37.svg

<svg width="400" height="180" viewBox="0 0 400 180" fill="none" xmlns="http://www.w3.org/2000/svg">
<path d="M222.161 69.5874C209.298 117.593 159.939 146.09 111.934 133.227C63.928 120.364 35.4309 71.0055 48.2939 23L222.161 69.5874Z" fill="white"/>
<path d="M111.934 133.227C135.94 139.659 160.615 125.413 167.047 101.407C173.48 77.4013 159.233 52.7261 135.227 46.2937C111.221 39.8613 86.5463 54.1076 80.1139 78.1135C73.6815 102.119 87.9277 126.795 111.934 133.227Z" fill="#010101"/>
<path d="M104.749 79.8937L104.408 77.2386L104.899 77.3701L104.842 77.4205C104.408 77.8958 103.914 78.2674 103.36 78.5354C102.806 78.8033 102.172 78.9621 101.478 79.0171C100.783 79.0722 100.041 78.9827 99.2636 78.7745C98.0164 78.4404 97.1337 77.8094 96.5799 76.8502C96.0466 75.8965 96.0072 74.5712 96.4619 72.8742L99.5407 61.384C99.9954 59.687 100.713 58.5644 101.692 58.0161C102.672 57.4678 103.793 57.3737 105.06 57.7134C106.083 57.9873 106.942 58.4587 107.625 59.1017C108.307 59.7447 108.739 60.3424 108.91 60.8485L108.944 60.9671L108.453 60.8356L110.453 53.3731L115.359 54.6879L108.347 80.8579L104.749 79.8937ZM105.917 62.0406C105.119 61.827 104.563 62.2694 104.261 63.3939L101.599 73.3303C101.424 73.9846 101.441 74.4932 101.65 74.8561C101.86 75.219 102.251 75.4772 102.803 75.6251C103.334 75.7675 103.767 75.7081 104.12 75.4521C104.474 75.1962 104.706 74.8202 104.843 74.3091L107.702 63.6366C107.337 62.7936 106.755 62.2652 105.917 62.0406ZM116.23 56.6741L115.616 58.964L107.009 56.6576L107.622 54.3678L116.23 56.6741Z" fill="white"/>
<path d="M124.049 85.0652L119.142 83.7504L119.739 81.5219L120.23 81.6533C119.864 82.0374 119.422 82.3791 118.868 82.647C118.335 82.9205 117.701 83.0792 117.001 83.1547C116.302 83.2302 115.553 83.1612 114.756 82.9475C113.529 82.6188 112.687 81.9988 112.189 81.0765C111.691 80.1542 111.698 78.8194 112.158 77.102L116.437 61.1342L121.344 62.449L117.252 77.7217C116.956 78.8257 117.252 79.5187 118.152 79.7597C118.438 79.8364 118.778 79.7959 119.196 79.6233C119.615 79.4506 120.03 79.2112 120.441 78.9049L124.615 63.3256L129.522 64.6404L124.044 85.0856L124.049 85.0652ZM129.648 58.6918L129.034 60.9816L118.055 60.494L118.668 58.2041L129.648 58.6918Z" fill="white"/>
<path d="M131.49 65.1458L136.397 66.4606L135.756 68.8527L135.266 68.7212L135.567 68.4953C136.243 68.0189 137.065 67.6476 138.081 67.3721C139.098 67.0965 140.104 67.1032 141.106 67.3716C142.312 67.6948 143.092 68.2984 143.488 69.1933C143.884 70.0882 143.841 71.3916 143.37 73.1499L139.092 89.1177L134.185 87.8029L138.277 72.5302C138.573 71.4262 138.317 70.7442 137.52 70.5305C136.723 70.3169 135.914 70.4727 135.176 71.0199L130.914 86.9263L126.007 85.6116L131.485 65.1663L131.49 65.1458Z" fill="white"/>
<path d="M147.667 71.0144C149.007 70.1025 150.817 69.9738 153.168 70.6038L160.303 72.5157L159.427 75.787L154.908 74.5763L155.04 74.0856C155.971 74.6198 156.698 75.3406 157.207 76.222C157.71 77.1238 157.74 78.4028 157.296 80.0588L157.181 80.4882C156.841 81.7558 156.341 82.8051 155.675 83.6564C155.008 84.5078 154.151 85.089 153.058 85.4094C151.984 85.7354 150.701 85.6984 149.209 85.2985L148.002 84.9752C147.491 84.8383 147.101 84.8215 146.833 84.9248C146.564 85.0281 146.35 85.2555 146.251 85.6235C146.054 86.3595 146.446 86.859 147.427 87.122L149.513 87.6808C151.762 88.2834 153.293 89.1101 154.128 90.1664C154.962 91.2227 155.123 92.6682 154.635 94.4878C154.082 96.5528 153.156 97.8824 151.837 98.4712C150.517 99.06 148.889 99.084 146.947 98.5635L144.555 97.9226C142.695 97.4241 141.316 96.6821 140.372 95.7061C139.428 94.7301 139.15 93.5599 139.517 92.19C139.731 91.3927 140.06 90.7359 140.479 90.2346C140.899 89.7334 141.428 89.3932 142.068 89.2139C142.713 89.0143 143.442 88.9906 144.272 89.0816L144.141 89.5723C143.096 89.1388 142.402 88.5367 142.097 87.7973C141.77 87.0525 141.754 86.2153 142.011 85.2544C142.247 84.3753 142.674 83.679 143.32 83.1508C143.965 82.6225 144.872 82.4273 146.015 82.58L145.883 83.0707C144.838 82.6372 144.246 81.8212 144.111 80.6893C143.981 79.5371 144.084 78.3373 144.423 77.0697L144.889 75.3319C145.415 73.3691 146.348 71.9318 147.662 71.0349L147.667 71.0144ZM144.052 93.0108C144.232 93.3219 144.567 93.5432 145.058 93.6747L148.983 94.7265C149.454 94.8525 149.854 94.8284 150.186 94.6543C150.497 94.4747 150.707 94.1804 150.817 93.7715C150.932 93.3422 150.897 92.9822 150.706 92.712C150.516 92.4418 150.175 92.241 149.685 92.1095L145.759 91.0577C145.248 90.9207 144.852 90.9243 144.573 91.0685C144.273 91.2072 144.062 91.5015 143.947 91.9308C143.832 92.3602 143.873 92.6997 144.052 93.0108ZM149.197 80.5182C149.397 80.8347 149.711 81.0505 150.12 81.1601C150.529 81.2697 150.951 81.2511 151.303 81.0824C151.654 80.9138 151.896 80.5841 152.028 80.0934L152.992 76.4951C153.118 76.0248 153.073 75.6185 152.858 75.276C152.638 74.9539 152.303 74.7327 151.873 74.6176C151.444 74.5026 151.084 74.5376 150.752 74.7117C150.421 74.8858 150.179 75.2155 150.048 75.7062L149.084 79.3046C148.958 79.7748 149.002 80.1812 149.197 80.5182Z" fill="white"/>
<path d="M91.8595 111.479C91.8595 111.479 91.8649 111.459 91.8704 111.438L98.8662 85.3296L103.773 86.6443L96.7609 112.814L91.9153 111.516L91.8744 111.505L91.8595 111.479ZM97.851 108.746L96.7663 112.794L96.1121 112.619L97.1968 108.57L97.851 108.746Z" fill="white"/>
<path d="M105.168 94.6877C106.508 93.7758 108.338 93.6525 110.668 94.277C112.999 94.9016 114.517 95.9437 115.227 97.383C115.931 98.8427 116.006 100.528 115.48 102.491L113.299 110.628C112.774 112.591 111.841 114.028 110.526 114.925C109.186 115.837 107.377 115.966 105.026 115.336C102.675 114.706 101.177 113.669 100.467 112.23C99.7629 110.77 99.6886 109.085 100.214 107.122L102.395 98.9847C102.921 97.0219 103.854 95.5846 105.168 94.6877ZM104.977 110.611C105.197 110.933 105.553 111.16 106.064 111.297C106.575 111.434 106.997 111.415 107.369 111.252C107.741 111.089 107.983 110.759 108.115 110.269L110.799 100.25C110.925 99.7803 110.86 99.3684 110.645 99.0259C110.404 98.6984 110.028 98.4662 109.537 98.3347C109.047 98.2032 108.605 98.2163 108.253 98.385C107.901 98.5536 107.659 98.8833 107.528 99.374L104.843 109.392C104.717 109.862 104.762 110.269 104.977 110.611Z" fill="white"/>
<path d="M119.888 98.632C121.228 97.7201 123.058 97.5969 125.389 98.2214C127.72 98.8459 129.238 99.8881 129.948 101.327C130.652 102.787 130.726 104.472 130.201 106.435L128.02 114.572C127.494 116.535 126.561 117.972 125.247 118.869C123.907 119.781 122.098 119.91 119.747 119.28C117.395 118.65 115.898 117.613 115.188 116.174C114.484 114.714 114.409 113.029 114.935 111.066L117.116 102.929C117.641 100.966 118.574 99.529 119.888 98.632ZM119.698 114.556C119.918 114.878 120.274 115.104 120.785 115.241C121.296 115.378 121.717 115.36 122.09 115.197C122.462 115.033 122.704 114.704 122.835 114.213L125.52 104.195C125.646 103.725 125.581 103.313 125.366 102.97C125.125 102.643 124.749 102.411 124.258 102.279C123.767 102.148 123.326 102.161 122.974 102.329C122.622 102.498 122.38 102.828 122.248 103.318L119.564 113.337C119.438 113.807 119.483 114.213 119.698 114.556Z" fill="white"/>
<path d="M135.177 95.059L140.084 96.3738L136.567 109.5L136.076 109.368L142.189 103.074L146.769 104.301L142.211 110.026C141.692 110.654 141.237 111.124 140.837 111.389C140.432 111.675 139.937 111.805 139.321 111.815C138.704 111.826 137.865 111.688 136.802 111.403L136.933 110.913C137.996 111.198 138.792 111.498 139.3 111.81C139.808 112.121 140.167 112.502 140.36 112.926C140.553 113.351 140.691 113.979 140.769 114.833L141.863 124.899L136.629 123.497L135.214 112.665L135.705 112.797L133.092 122.549L128.185 121.234L135.197 95.0645L135.177 95.059Z" fill="white"/>
<g clip-path="url(#clip0_70_1473)">
<path d="M352.775 23.0326C365.497 70.5125 336.686 119.483 288.422 132.415C240.158 145.348 190.722 117.343 178 69.8633L352.775 23.0326Z" fill="white"/>
<path d="M265.388 46.448C241.256 52.9139 226.851 77.4001 233.211 101.139C239.572 124.879 264.291 138.881 288.423 132.415C312.554 125.949 326.96 101.463 320.599 77.724C314.238 53.9847 289.519 39.982 265.388 46.448Z" fill="#FFCF4B"/>
<path d="M245.32 71.288C245.32 71.288 277.378 88.2281 294.785 58.6122C277.358 88.2335 308.334 106.984 308.334 106.984C280.921 91.4553 260.045 117.631 260.045 117.631C260.045 117.631 272.707 86.8025 245.294 71.2735L245.32 71.288Z" fill="white"/>
</g>
<defs>
<clipPath id="clip0_70_1473">
<rect width="180.94" height="89" fill="white" transform="translate(375.81 109) rotate(165)"/>
</clipPath>
</defs>
</svg>

<svg xmlns="http://www.w3.org/2000/svg" width="400" height="180" fill="none" viewBox="0 0 400 180"><path fill="#fff" d="M222.161 69.587c-12.863 48.006-62.222 76.503-110.227 63.64S35.431 71.005 48.294 23z"/><path fill="#010101" d="M111.934 133.227c24.006 6.432 48.681-7.814 55.113-31.82s-7.814-48.68-31.82-55.113-48.68 7.814-55.113 31.82c-6.433 24.005 7.814 48.681 31.82 55.113"/><path fill="#fff" d="m104.749 79.894-.341-2.655.491.131-.057.05a4.9 4.9 0 0 1-1.482 1.115c-.554.268-1.188.427-1.882.482-.695.055-1.437-.034-2.214-.242-1.248-.335-2.13-.966-2.684-1.925q-.8-1.43-.118-3.976l3.079-11.49q.682-2.546 2.151-3.368c.98-.548 2.101-.642 3.368-.303 1.023.274 1.882.746 2.565 1.389.682.643 1.114 1.24 1.285 1.747l.034.118-.491-.131 2-7.463 4.906 1.315-7.012 26.17zm1.168-17.853c-.798-.214-1.354.228-1.656 1.353l-2.662 9.936q-.263.982.051 1.526c.21.363.601.621 1.153.77.531.141.964.082 1.317-.174.354-.256.586-.632.723-1.143l2.859-10.672c-.365-.843-.947-1.372-1.785-1.596m10.313-5.367-.614 2.29-8.607-2.306.613-2.29z"/><path fill="#fff" d="m124.049 85.065-4.907-1.315.597-2.228.491.131a4.7 4.7 0 0 1-1.362.994c-.533.273-1.167.432-1.867.508q-1.049.112-2.245-.207c-1.227-.33-2.069-.95-2.567-1.871-.498-.923-.491-2.258-.031-3.975l4.279-15.968 4.907 1.315-4.092 15.273c-.296 1.104 0 1.797.9 2.038.286.076.626.036 1.044-.137a5.8 5.8 0 0 0 1.245-.718l4.174-15.58 4.907 1.315-5.478 20.446zm5.599-26.373-.614 2.29-10.979-.488.613-2.29z"/><path fill="#fff" d="m131.49 65.146 4.907 1.315-.641 2.392-.49-.132.301-.226c.676-.476 1.498-.847 2.514-1.123a5.7 5.7 0 0 1 3.025 0c1.206.323 1.986.926 2.382 1.821s.353 2.199-.118 3.957l-4.278 15.968-4.907-1.315 4.092-15.273c.296-1.104.04-1.786-.757-2s-1.606-.057-2.344.49l-4.262 15.906-4.907-1.314 5.478-20.446z"/><path fill="#fff" d="M147.667 71.014c1.34-.911 3.15-1.04 5.501-.41l7.135 1.912-.876 3.271-4.519-1.21.132-.491a5.8 5.8 0 0 1 2.167 2.136q.755 1.352.089 3.837l-.115.43c-.34 1.267-.84 2.316-1.506 3.167-.667.852-1.524 1.433-2.617 1.753q-1.611.49-3.849-.11l-1.207-.324q-.767-.205-1.169-.05c-.269.103-.483.33-.582.699q-.296 1.104 1.176 1.498l2.086.559c2.249.602 3.78 1.43 4.615 2.485.834 1.057.995 2.502.507 4.322-.553 2.065-1.479 3.394-2.798 3.983-1.32.589-2.948.613-4.89.093l-2.392-.641c-1.86-.499-3.239-1.24-4.183-2.217-.944-.976-1.222-2.146-.855-3.516.214-.797.543-1.454.962-1.955q.63-.753 1.589-1.021c.645-.2 1.374-.223 2.204-.132l-.131.49c-1.045-.433-1.739-1.035-2.044-1.775-.327-.745-.343-1.582-.086-2.543.236-.879.663-1.575 1.309-2.103s1.552-.724 2.695-.571l-.132.49c-1.045-.433-1.637-1.249-1.772-2.38-.13-1.153-.027-2.353.312-3.62l.466-1.738c.526-1.963 1.459-3.4 2.773-4.297zm-3.615 21.997q.27.465 1.006.664l3.925 1.052q.706.189 1.203-.073.466-.27.631-.882c.115-.43.08-.79-.111-1.06q-.285-.405-1.021-.603l-3.926-1.051q-.767-.206-1.186.01c-.3.14-.511.433-.626.863s-.074.769.105 1.08m5.145-12.493c.2.317.514.532.923.642s.831.091 1.183-.078q.527-.252.725-.989l.964-3.598q.189-.706-.134-1.219c-.22-.322-.555-.543-.985-.658s-.789-.08-1.121.094-.573.504-.704.994l-.964 3.599c-.126.47-.082.876.113 1.213"/><path fill="#fff" d="m91.86 111.479.01-.041 6.996-26.108 4.907 1.314-7.012 26.17-4.846-1.298-.04-.011zm5.991-2.733-1.085 4.048-.654-.175 1.085-4.049z"/><path fill="#fff" d="M105.168 94.688c1.34-.912 3.17-1.035 5.5-.411 2.331.625 3.849 1.667 4.559 3.106.704 1.46.779 3.145.253 5.108l-2.181 8.137c-.525 1.963-1.458 3.4-2.773 4.297-1.34.912-3.149 1.041-5.5.411s-3.849-1.667-4.559-3.106c-.704-1.46-.778-3.145-.253-5.108l2.181-8.137c.526-1.963 1.459-3.4 2.773-4.297m-.191 15.923c.22.322.576.549 1.087.686s.933.118 1.305-.045.614-.493.746-.983l2.684-10.019c.126-.47.061-.882-.154-1.224-.241-.328-.617-.56-1.108-.691-.49-.132-.932-.119-1.284.05q-.528.253-.725.989l-2.685 10.018q-.189.706.134 1.219"/><path fill="#fff" d="M119.888 98.632c1.34-.912 3.17-1.035 5.501-.41 2.331.624 3.849 1.666 4.559 3.105.704 1.46.778 3.145.253 5.108l-2.181 8.137c-.526 1.963-1.459 3.4-2.773 4.297-1.34.912-3.149 1.041-5.5.411s-3.849-1.667-4.559-3.106c-.704-1.46-.779-3.145-.253-5.108l2.181-8.137c.525-1.963 1.458-3.4 2.772-4.297m-.19 15.924c.22.322.576.548 1.087.685s.932.119 1.305-.044c.372-.164.614-.493.745-.984l2.685-10.018c.126-.47.061-.882-.154-1.225-.241-.327-.617-.559-1.108-.691s-.932-.118-1.284.05q-.528.254-.726.989l-2.684 10.019q-.189.705.134 1.219"/><path fill="#fff" d="m135.177 95.059 4.907 1.315-3.517 13.126-.491-.132 6.113-6.294 4.58 1.227-4.558 5.725c-.519.628-.974 1.098-1.374 1.363-.405.286-.9.416-1.516.426q-.925.016-2.519-.412l.131-.49c1.063.285 1.859.585 2.367.897.508.311.867.692 1.06 1.116s.331 1.053.409 1.907l1.094 10.066-5.234-1.402-1.415-10.832.491.132-2.613 9.752-4.907-1.315 7.012-26.17z"/><g clip-path="url(#Eye_37_svg_clip0_70_1473)"><path fill="#fff" d="M352.775 23.033c12.722 47.48-16.089 96.45-64.353 109.382S190.722 117.343 178 69.863z"/><path fill="#ffcf4b" d="M265.388 46.448c-24.132 6.466-38.537 30.952-32.177 54.691 6.361 23.74 31.08 37.742 55.212 31.276 24.131-6.466 38.537-30.952 32.176-54.691s-31.08-37.742-55.211-31.276"/><path fill="#fff" d="M245.32 71.288s32.058 16.94 49.465-12.676c-17.427 29.622 13.549 48.372 13.549 48.372-27.413-15.529-48.289 10.647-48.289 10.647s12.662-30.829-14.751-46.357z"/></g><defs><clipPath id="Eye_37_svg_clip0_70_1473"><rect width="180.94" height="89" fill="#fff" transform="rotate(165 180.73 79.238)"/></clipPath></defs></svg>
